X: 32016
T: Peerie Hoose Ahint Da Burn
R: reel
M: 4/4
K: Gmajor
D|GABc dBGB|gfge dBGB|c2 ec B2 dB|A2 cA GFED|
GABc dBGB|gfge dBGB|cedc BdcB|A2 AB G2:|
|:d2|g2 gf gfgd|gfgd edcB|c2 ec B2 dB|A2 cA GFED|
g2 gf gfgd|gfgd edcB|c2 ec B2 dB|A2 Ac G2:|

